assets/img/microillustration/sales.svg

<?xml version="1.0" encoding="UTF-8"?>
<svg width="106px" height="106px" viewBox="0 0 106 106" version="1.1" xmlns="http://www.w3.org/2000/svg" xmlns:xlink="http://www.w3.org/1999/xlink">
    <title>4. Elements_Microillustrations/Sales</title>
    <g id="4.-Elements_Microillustrations/Sales" stroke="none" stroke-width="1" fill="none" fill-rule="evenodd">
        <polygon id="Star" fill="#004EBD" points="53 93.5011161 43.0202388 99.9510848 36.526712 89.9996106 24.7863079 91.8328157 22.9018052 80.1005364 11.4307806 77 14.4811496 65.5155332 5.26294902 58.0173662 12.7207533 48.7664806 7.34928722 38.1671843 17.9250046 32.749442 17.3290484 20.8817309 29.1940413 20.2339088 33.4766411 9.14981803 44.5793445 13.3839305 53 5 61.4206555 13.3839305 72.5233589 9.14981803 76.8059587 20.2339088 88.6709516 20.8817309 88.0749954 32.749442 98.6507128 38.1671843 93.2792467 48.7664806 100.737051 58.0173662 91.5188504 65.5155332 94.5692194 77 83.0981948 80.1005364 81.2136921 91.8328157 69.473288 89.9996106 62.9797612 99.9510848"></polygon>
        <path d="M32.3271484,60.7148438 C34.0602214,60.7148438 35.4388021,60.3299154 36.4628906,59.5600586 C37.4869792,58.7902018 37.9990234,57.7285156 37.9990234,56.375 C37.9990234,55.1575521 37.5800781,54.140625 36.7421875,53.3242188 C35.9042969,52.5078125 34.5686849,51.8238932 32.7353516,51.2724609 C31.7399089,50.9716797 30.9861654,50.6494141 30.4741211,50.3056641 C29.9620768,49.9619141 29.7060547,49.5358073 29.7060547,49.0273438 C29.7060547,48.4830729 29.9244792,48.0444336 30.3613281,47.7114258 C30.7981771,47.378418 31.4104818,47.2119141 32.1982422,47.2119141 C33.0146484,47.2119141 33.6484375,47.4106445 34.0996094,47.8081055 C34.5507812,48.2055664 34.7763672,48.7623698 34.7763672,49.4785156 L34.7763672,49.4785156 L37.9990234,49.4785156 C37.9990234,48.5403646 37.7573242,47.702474 37.2739258,46.9648438 C36.7905273,46.2272135 36.1119792,45.6560872 35.2382812,45.2514648 C34.3645833,44.8468424 33.3691406,44.6445312 32.2519531,44.6445312 C31.1419271,44.6445312 30.1411133,44.8307292 29.2495117,45.203125 C28.3579102,45.5755208 27.6739909,46.0929362 27.1977539,46.7553711 C26.7215169,47.417806 26.4833984,48.1715495 26.4833984,49.0166016 C26.4833984,50.6422526 27.3714193,51.9348958 29.1474609,52.8945312 C29.7991536,53.2454427 30.6835937,53.6017253 31.8007812,53.9633789 C32.9179687,54.3250326 33.6914062,54.6687826 34.1210937,54.9946289 C34.5507812,55.3204753 34.765625,55.7877604 34.765625,56.3964844 C34.765625,56.9550781 34.5507812,57.3901367 34.1210937,57.7016602 C33.6914062,58.0131836 33.0934245,58.1689453 32.3271484,58.1689453 C30.2646484,58.1689453 29.2333984,57.3059896 29.2333984,55.5800781 L29.2333984,55.5800781 L26,55.5800781 C26,56.5898438 26.2596029,57.4778646 26.7788086,58.2441406 C27.2980143,59.0104167 28.0517578,59.6137695 29.0400391,60.0541992 C30.0283203,60.4946289 31.1240234,60.7148438 32.3271484,60.7148438 Z M43.7667969,60.7148438 C44.9699219,60.7148438 45.9474609,60.2958984 46.6994141,59.4580078 C46.7638672,59.8733724 46.8677083,60.2207031 47.0109375,60.5 L47.0109375,60.5 L50.1476562,60.5 L50.1476562,60.3173828 C49.846875,59.7516276 49.6929036,58.9173177 49.6857422,57.8144531 L49.6857422,57.8144531 L49.6857422,52.7763672 C49.6857422,51.4729818 49.2650065,50.4614258 48.4235352,49.7416992 C47.5820638,49.0219727 46.4451823,48.6621094 45.0128906,48.6621094 C44.0675781,48.6621094 43.2153646,48.8250326 42.45625,49.1508789 C41.6971354,49.4767253 41.1098958,49.9261068 40.6945312,50.4990234 C40.2791667,51.0719401 40.0714844,51.694987 40.0714844,52.3681641 L40.0714844,52.3681641 L43.1759766,52.3681641 C43.1759766,51.9313151 43.3245768,51.5875651 43.6217773,51.3369141 C43.9189779,51.086263 44.3289714,50.9609375 44.8517578,50.9609375 C45.4461589,50.9609375 45.8812174,51.1220703 46.1569336,51.4443359 C46.4326497,51.7666016 46.5705078,52.1962891 46.5705078,52.7333984 L46.5705078,52.7333984 L46.5705078,53.3994141 L45.1417969,53.3994141 C43.4158854,53.4065755 42.0963867,53.7395833 41.1833008,54.3984375 C40.2702148,55.0572917 39.8136719,56.0026042 39.8136719,57.234375 C39.8136719,58.2369792 40.1878581,59.0677083 40.9362305,59.7265625 C41.6846029,60.3854167 42.628125,60.7148438 43.7667969,60.7148438 Z M44.4435547,58.3408203 C43.9708984,58.3408203 43.5985026,58.2154948 43.3263672,57.9648438 C43.0542318,57.7141927 42.9181641,57.3955078 42.9181641,57.0087891 L42.9181641,57.0087891 L42.9289062,56.8261719 C43.0291667,55.7519531 43.8563151,55.2148438 45.4103516,55.2148438 L45.4103516,55.2148438 L46.5705078,55.2148438 L46.5705078,57.2128906 C46.3843099,57.5566406 46.0978516,57.8305664 45.7111328,58.034668 C45.3244141,58.2387695 44.901888,58.3408203 44.4435547,58.3408203 Z M55.646875,60.5 L55.646875,44 L52.5316406,44 L52.5316406,60.5 L55.646875,60.5 Z M63.853125,60.7148438 C64.8199219,60.7148438 65.7007812,60.5304362 66.4957031,60.1616211 C67.290625,59.792806 67.9208333,59.2789714 68.3863281,58.6201172 L68.3863281,58.6201172 L66.8609375,56.9121094 C66.1877604,57.7786458 65.2531901,58.2119141 64.0572266,58.2119141 C63.2837891,58.2119141 62.6446289,57.9827474 62.1397461,57.5244141 C61.6348633,57.0660807 61.3322917,56.4573568 61.2320312,55.6982422 L61.2320312,55.6982422 L68.6333984,55.6982422 L68.6333984,54.4306641 C68.6333984,52.5901693 68.1768555,51.1686198 67.2637695,50.1660156 C66.3506836,49.1634115 65.0992187,48.6621094 63.509375,48.6621094 C62.4494792,48.6621094 61.505957,48.9109701 60.6788086,49.4086914 C59.8516602,49.9064128 59.2125,50.6153971 58.7613281,51.5356445 C58.3101562,52.4558919 58.0845703,53.4996745 58.0845703,54.6669922 L58.0845703,54.6669922 L58.0845703,54.9677734 C58.0845703,56.7080078 58.6198893,58.1009115 59.6905273,59.1464844 C60.7611654,60.1920573 62.1486979,60.7148438 63.853125,60.7148438 Z M65.5826172,53.5820312 L61.2642578,53.5820312 C61.3716797,52.8085938 61.6169596,52.2141927 62.0000977,51.7988281 C62.3832357,51.3834635 62.8827474,51.1757812 63.4986328,51.1757812 C64.157487,51.1757812 64.6659505,51.3637695 65.0240234,51.7397461 C65.3820964,52.1157227 65.5682943,52.6474609 65.5826172,53.3349609 L65.5826172,53.3349609 L65.5826172,53.5820312 Z M75.1208984,60.7148438 C76.5603516,60.7148438 77.7348307,60.387207 78.6443359,59.7319336 C79.5538411,59.0766602 80.0085937,58.2190755 80.0085937,57.1591797 C80.0085937,55.6767578 79.1886068,54.6347656 77.5486328,54.0332031 C77.0186849,53.8398438 76.3669922,53.6661784 75.5935547,53.512207 C74.8201172,53.3582357 74.2704753,53.1756185 73.9446289,52.9643555 C73.6187826,52.7530924 73.4558594,52.4755859 73.4558594,52.1318359 C73.4558594,51.7666016 73.5990885,51.4658203 73.8855469,51.2294922 C74.1720052,50.9931641 74.5766276,50.875 75.0994141,50.875 C75.708138,50.875 76.1557292,51.0200195 76.4421875,51.3100586 C76.7286458,51.6000977 76.871875,51.9671224 76.871875,52.4111328 L76.871875,52.4111328 L79.9763672,52.4111328 C79.9763672,51.3011068 79.5341471,50.398763 78.649707,49.7041016 C77.7652669,49.0094401 76.5854167,48.6621094 75.1101562,48.6621094 C73.7279948,48.6621094 72.6090169,49.0076497 71.7532227,49.6987305 C70.8974284,50.3898112 70.4695312,51.2509766 70.4695312,52.2822266 C70.4695312,54.0511068 71.8516927,55.2255859 74.6160156,55.8056641 C75.4467448,55.9775391 76.0500977,56.1726888 76.4260742,56.3911133 C76.8020508,56.6095378 76.9900391,56.9085286 76.9900391,57.2880859 C76.9900391,57.6533203 76.8378581,57.9487305 76.5334961,58.1743164 C76.2291341,58.3999023 75.7797526,58.5126953 75.1853516,58.5126953 C74.5479818,58.5126953 74.0395182,58.3658854 73.6599609,58.0722656 C73.2804036,57.7786458 73.0763021,57.3561198 73.0476562,56.8046875 L73.0476562,56.8046875 L70.1042969,56.8046875 C70.1042969,57.5065104 70.3191406,58.1599935 70.7488281,58.7651367 C71.1785156,59.3702799 71.7711263,59.8465169 72.5266602,60.1938477 C73.282194,60.5411784 74.1469401,60.7148438 75.1208984,60.7148438 Z" id="Sales" fill="#FFFFFF"></path>
    </g>
</svg>

<svg viewBox="0 0 106 106" xmlns="http://www.w3.org/2000/svg"><g fill="none" fill-rule="evenodd"><path fill="#0059C4" d="m53 93.501-9.98 6.45L36.527 90l-11.74 1.833L22.901 80.1 11.43 77l3.05-11.484-9.218-7.499 7.458-9.25-5.372-10.6 10.576-5.418-.596-11.867 11.865-.648L33.477 9.15l11.102 4.234L53 5l8.42 8.384L72.524 9.15l4.283 11.084 11.865.648-.596 11.867 10.576 5.418-5.372 10.6 7.458 9.25-9.218 7.499L94.569 77 83.1 80.1l-1.885 11.733L69.474 90 62.98 99.95z"/><path d="M32.327 60.715c1.733 0 3.112-.385 4.136-1.155s1.536-1.831 1.536-3.185c0-1.217-.419-2.234-1.257-3.05-.838-.817-2.173-1.501-4.007-2.053-.995-.3-1.749-.623-2.26-.966-.513-.344-.769-.77-.769-1.279 0-.544.218-.983.655-1.316.437-.333 1.05-.5 1.837-.5.817 0 1.45.2 1.902.597.45.398.676.954.676 1.67H38c0-.938-.242-1.776-.725-2.513-.483-.738-1.162-1.309-2.036-1.714-.873-.404-1.869-.606-2.986-.606-1.11 0-2.11.186-3.002.558-.892.373-1.576.89-2.052 1.552a3.777 3.777 0 0 0-.715 2.262c0 1.625.888 2.918 2.664 3.878.652.35 1.537.707 2.654 1.068 1.117.362 1.89.706 2.32 1.032.43.325.645.793.645 1.401 0 .56-.215.994-.645 1.306-.43.311-1.028.467-1.794.467-2.062 0-3.094-.863-3.094-2.589H26c0 1.01.26 1.898.779 2.664.519.766 1.273 1.37 2.261 1.81.988.44 2.084.66 3.287.66zm11.44 0c1.203 0 2.18-.42 2.932-1.257.065.415.169.763.312 1.042h3.137v-.183c-.301-.565-.455-1.4-.462-2.503v-5.038c0-1.303-.421-2.315-1.262-3.034-.842-.72-1.979-1.08-3.411-1.08-.945 0-1.798.163-2.557.489-.759.326-1.346.775-1.761 1.348a3.118 3.118 0 0 0-.624 1.87h3.105c0-.438.149-.781.446-1.032.297-.25.707-.376 1.23-.376.594 0 1.03.161 1.305.483.276.323.414.752.414 1.29v.665h-1.43c-1.725.008-3.045.34-3.958 1-.913.658-1.37 1.604-1.37 2.835 0 1.003.375 1.834 1.123 2.493.749.658 1.692.988 2.83.988zm.677-2.374c-.473 0-.845-.126-1.118-.376a1.243 1.243 0 0 1-.408-.956l.01-.183c.101-1.074.928-1.611 2.482-1.611h1.16v1.998a2.01 2.01 0 0 1-.859.822c-.387.204-.81.306-1.267.306zM55.647 60.5V44h-3.115v16.5h3.115zm8.206.215c.967 0 1.848-.185 2.643-.553.795-.37 1.425-.883 1.89-1.542l-1.525-1.708c-.673.867-1.608 1.3-2.804 1.3-.773 0-1.412-.23-1.917-.688-.505-.458-.808-1.067-.908-1.826h7.401v-1.267c0-1.84-.456-3.262-1.37-4.265-.912-1.003-2.164-1.504-3.754-1.504-1.06 0-2.003.249-2.83.747-.827.497-1.467 1.206-1.918 2.127-.45.92-.676 1.964-.676 3.131v.3c0 1.741.535 3.134 1.606 4.18 1.07 1.045 2.458 1.568 4.162 1.568zm1.73-7.133h-4.319c.108-.773.353-1.368.736-1.783.383-.416.883-.623 1.499-.623.658 0 1.167.188 1.525.564.358.376.544.907.559 1.595v.247zm9.538 7.133c1.44 0 2.614-.328 3.523-.983.91-.655 1.365-1.513 1.365-2.573 0-1.482-.82-2.524-2.46-3.126a13.468 13.468 0 0 0-1.955-.52c-.774-.155-1.324-.337-1.65-.549-.325-.21-.488-.488-.488-.832 0-.365.143-.666.43-.903.286-.236.69-.354 1.213-.354.61 0 1.057.145 1.343.435.287.29.43.657.43 1.101h3.104c0-1.11-.442-2.012-1.326-2.707-.885-.695-2.065-1.042-3.54-1.042-1.382 0-2.501.346-3.357 1.037-.856.69-1.283 1.552-1.283 2.583 0 1.77 1.382 2.944 4.146 3.524.83.172 1.434.367 1.81.585.376.219.564.518.564.897 0 .365-.152.66-.457.886-.304.226-.753.339-1.348.339-.637 0-1.145-.147-1.525-.44-.38-.294-.584-.717-.612-1.268h-2.944c0 .702.215 1.355.645 1.96.43.605 1.022 1.082 1.778 1.429.755.347 1.62.52 2.594.52z" fill="#FFF"/></g></svg>
